X:1
T:President (Second Term)
M:6/8
L:1/8
K:A
R:Colonial jig
D|"A"ABA Aag|"D"f3"A"e3|ecA G2A|"G"BGE EFG|!
"A"ABA Aag|"D"f2e efe|"A"ecA "E"E2G|"A"A3 A2:|]!
e|"A"ece ece|"D"fga"E"g2f|"A"ece ecA|"E"BGE E2e|!
"A"ece ece|"D"fga"E"g2f|"A"ecA "E"BGE|"A"A3A2:|]!
E|"A"EDC CB,A,|"E"E2EE2C|"D"F2F FGA|"E"BcA GFE|!
"A"EDC CB,A,|"E"E2A"D"D2c|"A"cBA "E"ABG|"A"A3A2:|]!
